dist/img/planet.svg

<svg width="104" height="97" viewBox="0 0 104 97" fill="none" xmlns="http://www.w3.org/2000/svg">
<path fill-rule="evenodd" clip-rule="evenodd" d="M98.099 62.3108C98.099 80.9683 82.9741 96.0932 64.3166 96.0932C45.6591 96.0932 30.5342 80.9683 30.5342 62.3108C30.5342 43.6533 45.6591 28.5281 64.3166 28.5281C82.9741 28.5281 98.099 43.6533 98.099 62.3108Z" fill="#33A853"/>
<path fill-rule="evenodd" clip-rule="evenodd" d="M64.0179 63.1155H31.1013C30.6568 63.1155 30.2966 62.755 30.2966 62.3108C30.2966 61.8663 30.6568 61.5061 31.1013 61.5061H64.0179C64.4624 61.5061 64.8226 61.8663 64.8226 62.3108C64.8226 62.755 64.4624 63.1155 64.0179 63.1155Z" fill="black"/>
<path fill-rule="evenodd" clip-rule="evenodd" d="M64.6068 95.0075C64.647 95.0078 64.686 95.0104 64.7243 95.0165C64.6866 95.0107 64.6473 95.0078 64.6068 95.0075ZM64.6029 96.6169C63.804 96.6169 63.7374 95.8302 63.6836 95.1984C63.645 94.7461 63.6074 94.0766 63.5716 93.2089C63.5018 91.5129 63.439 89.0889 63.3853 86.0037C63.2745 79.6644 63.2134 71.2499 63.2134 62.3108C63.2134 61.8663 63.5739 61.5061 64.0181 61.5061C64.4626 61.5061 64.8228 61.8663 64.8228 62.3108C64.8228 81.1299 65.0825 93.9987 65.3284 95.4636C65.3793 95.5692 65.4076 95.6873 65.4076 95.8122C65.4076 96.2564 65.0474 96.6169 64.6029 96.6169Z" fill="#192331"/>
<path fill-rule="evenodd" clip-rule="evenodd" d="M64.0982 80.0127H35.6821C35.2379 80.0127 34.8774 79.6522 34.8774 79.208C34.8774 78.7635 35.2379 78.4033 35.6821 78.4033H64.0982C64.5427 78.4033 64.9029 78.7635 64.9029 79.208C64.9029 79.6522 64.5427 80.0127 64.0982 80.0127Z" fill="black"/>
<path fill-rule="evenodd" clip-rule="evenodd" d="M64.6028 96.6169C59.6446 96.6169 55.0209 92.9745 51.5836 86.3606C48.2325 79.9138 46.3872 71.3725 46.3872 62.3108C46.3872 61.8663 46.7474 61.5061 47.1919 61.5061C47.6361 61.5061 47.9966 61.8663 47.9966 62.3108C47.9966 71.1192 49.7775 79.3969 53.0114 85.6187C56.1584 91.6729 60.2748 95.0075 64.6028 95.0075C65.0473 95.0075 65.4074 95.3677 65.4074 95.8122C65.4074 96.2564 65.0473 96.6169 64.6028 96.6169Z" fill="black"/>
<path fill-rule="evenodd" clip-rule="evenodd" d="M64.6068 95.0075C64.647 95.0078 64.6866 95.0107 64.7249 95.0165C64.6872 95.0107 64.6477 95.0078 64.6068 95.0075ZM64.6029 96.6169C63.804 96.6169 63.7374 95.8302 63.6836 95.1984C63.645 94.7461 63.6074 94.0766 63.5716 93.2089C63.5018 91.5129 63.439 89.0889 63.3853 86.0037C63.2745 79.6644 63.2134 71.2499 63.2134 62.3108C63.2134 61.8663 63.5739 61.5061 64.0181 61.5061H98.0992C98.5437 61.5061 98.9038 61.8663 98.9038 62.3108C98.9038 62.755 98.5437 63.1155 98.0992 63.1155H64.8231C64.8302 81.4965 65.086 94.0197 65.3284 95.4636C65.3793 95.5692 65.4076 95.6873 65.4076 95.8122C65.4076 96.2564 65.0474 96.6169 64.6029 96.6169Z" fill="black"/>
<path fill-rule="evenodd" clip-rule="evenodd" d="M93.5191 80.0127H64.0981C63.6536 80.0127 63.2935 79.6522 63.2935 79.208C63.2935 78.7635 63.6536 78.4033 64.0981 78.4033H93.5191C93.9636 78.4033 94.3238 78.7635 94.3238 79.208C94.3238 79.6522 93.9636 80.0127 93.5191 80.0127Z" fill="black"/>
<path fill-rule="evenodd" clip-rule="evenodd" d="M64.7243 29.6098C64.686 29.6156 64.647 29.6188 64.6068 29.6191C64.6473 29.6188 64.6866 29.6156 64.7243 29.6098ZM64.0181 63.1157C63.5739 63.1157 63.2134 62.7552 63.2134 62.311C63.2134 53.3738 63.2745 44.961 63.3853 38.622C63.439 35.5371 63.5018 33.1134 63.5716 31.4178C63.6074 30.5497 63.645 29.8802 63.6836 29.4279C63.7374 28.7961 63.804 28.0098 64.6029 28.0098C65.0474 28.0098 65.4076 28.3699 65.4076 28.8145C65.4076 28.9393 65.3793 29.0575 65.3284 29.163C65.0825 30.6276 64.8228 43.4945 64.8228 62.311C64.8228 62.7552 64.4626 63.1157 64.0181 63.1157Z" fill="black"/>
<path fill-rule="evenodd" clip-rule="evenodd" d="M64.0982 46.2219H35.6821C35.2379 46.2219 34.8774 45.8617 34.8774 45.4172C34.8774 44.9727 35.2379 44.6125 35.6821 44.6125H64.0982C64.5427 44.6125 64.9029 44.9727 64.9029 45.4172C64.9029 45.8617 64.5427 46.2219 64.0982 46.2219Z" fill="black"/>
<path fill-rule="evenodd" clip-rule="evenodd" d="M47.1919 63.1157C46.7474 63.1157 46.3872 62.7552 46.3872 62.311C46.3872 53.2509 48.2325 44.7112 51.5836 38.265C55.0212 31.6518 59.6446 28.0098 64.6028 28.0098C65.0473 28.0098 65.4074 28.3699 65.4074 28.8145C65.4074 29.259 65.0473 29.6191 64.6028 29.6191C60.2748 29.6191 56.1584 32.9531 53.0114 39.0073C49.7775 45.2285 47.9966 53.5045 47.9966 62.311C47.9966 62.7552 47.6361 63.1157 47.1919 63.1157Z" fill="black"/>
<path fill-rule="evenodd" clip-rule="evenodd" d="M93.5191 46.2219H64.0981C63.6536 46.2219 63.2935 45.8617 63.2935 45.4172C63.2935 44.9727 63.6536 44.6125 64.0981 44.6125H93.5191C93.9636 44.6125 94.3238 44.9727 94.3238 45.4172C94.3238 45.8617 93.9636 46.2219 93.5191 46.2219Z" fill="black"/>
<path fill-rule="evenodd" clip-rule="evenodd" d="M64.6028 96.6169C64.1583 96.6169 63.7981 96.2564 63.7981 95.8122C63.7981 95.3677 64.1583 95.0075 64.6028 95.0075C68.9307 95.0075 73.0475 91.6729 76.1941 85.6187C79.428 79.3969 81.2093 71.1192 81.2093 62.3108C81.2093 61.8663 81.5695 61.5061 82.014 61.5061C82.4582 61.5061 82.8187 61.8663 82.8187 62.3108C82.8187 71.3725 80.973 79.9138 77.6223 86.3606C74.1847 92.9745 69.5609 96.6169 64.6028 96.6169Z" fill="black"/>
<path fill-rule="evenodd" clip-rule="evenodd" d="M82.014 63.1157C81.5695 63.1157 81.2093 62.7552 81.2093 62.311C81.2093 53.5045 79.428 45.2285 76.1941 39.0073C73.0472 32.9531 68.9307 29.6191 64.6028 29.6191C64.1583 29.6191 63.7981 29.259 63.7981 28.8145C63.7981 28.3699 64.1583 28.0098 64.6028 28.0098C69.5609 28.0098 74.1844 31.6518 77.6223 38.265C80.973 44.7112 82.8187 53.2509 82.8187 62.311C82.8187 62.7552 82.4582 63.1157 82.014 63.1157Z" fill="black"/>
<path fill-rule="evenodd" clip-rule="evenodd" d="M92.454 20.0375C92.303 20.0375 92.1501 19.9947 92.014 19.9059C91.6422 19.6626 91.5379 19.1637 91.7816 18.7919L94.1448 15.1805C94.3878 14.8087 94.8864 14.7044 95.2588 14.9481C95.6305 15.1911 95.7348 15.69 95.4915 16.0621L93.128 19.6732C92.9738 19.9091 92.7166 20.0375 92.454 20.0375Z" fill="black"/>
<path fill-rule="evenodd" clip-rule="evenodd" d="M97.6925 36.309C97.258 36.309 96.9001 35.9623 96.8885 35.5252C96.8769 35.081 97.2277 34.7115 97.6719 34.6999L101.986 34.587C102.431 34.5751 102.8 34.9259 102.812 35.3704C102.824 35.8146 102.473 36.1841 102.028 36.1957L97.7141 36.3087C97.7067 36.3087 97.6996 36.309 97.6925 36.309Z" fill="black"/>
<path fill-rule="evenodd" clip-rule="evenodd" d="M76.5048 22.6547C76.191 22.6547 75.893 22.4703 75.7632 22.1632L74.0834 18.1878C73.9105 17.7783 74.102 17.3061 74.5115 17.1333C74.9212 16.9608 75.3931 17.152 75.5659 17.5614L77.2458 21.5369C77.4186 21.9463 77.2271 22.4185 76.8177 22.5913C76.7154 22.6345 76.6095 22.6547 76.5048 22.6547Z" fill="black"/>
<path fill-rule="evenodd" clip-rule="evenodd" d="M43.6548 24.8464C31.5282 31.2855 21.2997 18.4169 9.19104 24.8464C9.19104 18.0133 9.19104 11.1802 9.19104 4.34744C21.2993 -2.08202 31.5282 10.7865 43.6548 4.34744C43.6548 11.1802 43.6548 18.0133 43.6548 24.8464Z" fill="black"/>
<path fill-rule="evenodd" clip-rule="evenodd" d="M36.1858 12.8423C32.7453 12.8423 29.4306 11.8876 26.1874 10.9539C23.4653 10.1701 20.6508 9.35961 17.8679 9.17067C17.4247 9.14073 17.0896 8.75674 17.1195 8.31319C17.1498 7.86997 17.5364 7.53683 17.977 7.56516C20.9312 7.76568 23.8297 8.59998 26.6326 9.40725C31.61 10.8406 36.311 12.1944 41.3648 10.3275C41.7819 10.1733 42.2441 10.3867 42.3983 10.8035C42.5522 11.2204 42.3391 11.6832 41.9223 11.8374C39.9672 12.5594 38.0578 12.8423 36.1858 12.8423Z" fill="#F3F6F5"/>
<path fill-rule="evenodd" clip-rule="evenodd" d="M37.5213 22.8709C37.1058 22.8709 36.7533 22.5512 36.7198 22.1302C36.6848 21.687 37.0153 21.2991 37.4582 21.2641C38.8201 21.1559 40.0976 20.8759 41.3645 20.4076C41.7813 20.2534 42.2442 20.4668 42.398 20.8836C42.5522 21.3004 42.3391 21.7633 41.9223 21.9175C40.5151 22.4373 39.0969 22.7482 37.586 22.8683C37.5641 22.8702 37.5426 22.8709 37.5213 22.8709Z" fill="#F3F6F5"/>
<path fill-rule="evenodd" clip-rule="evenodd" d="M28.4408 16.4259C28.37 16.4259 28.2983 16.4166 28.2271 16.3969C27.546 16.2096 26.8666 16.0142 26.1864 15.8182C23.465 15.0348 20.6508 14.2243 17.8679 14.0353C17.4247 14.0054 17.0896 13.6214 17.1195 13.1782C17.1498 12.7346 17.5338 12.4022 17.977 12.4298C20.9312 12.6304 23.829 13.465 26.6319 14.2716C27.3053 14.4657 27.979 14.6598 28.6536 14.8452C29.082 14.963 29.334 15.4059 29.2162 15.8343C29.1181 16.1913 28.7939 16.4259 28.4408 16.4259Z" fill="#F3F6F5"/>
<path fill-rule="evenodd" clip-rule="evenodd" d="M46.3149 41.4315C45.8704 41.4315 45.5103 41.0713 45.5103 40.6268V1.74658C45.5103 1.30207 45.8704 0.941895 46.3149 0.941895C46.7595 0.941895 47.1196 1.30207 47.1196 1.74658V40.6268C47.1196 41.0713 46.7595 41.4315 46.3149 41.4315Z" fill="black"/>
<path fill-rule="evenodd" clip-rule="evenodd" d="M12.573 56.075C6.5636 56.075 1.67432 60.9639 1.67432 66.9733C1.67432 72.983 6.5636 77.872 12.573 77.872C18.5827 77.872 23.4717 72.983 23.4717 66.9733C23.4717 60.9639 18.5827 56.075 12.573 56.075ZM12.573 79.4814C5.67619 79.4814 0.0649414 73.8705 0.0649414 66.9733C0.0649414 60.0765 5.67619 54.4656 12.573 54.4656C19.4701 54.4656 25.0811 60.0765 25.0811 66.9733C25.0811 73.8705 19.4701 79.4814 12.573 79.4814Z" fill="black"/>
<path fill-rule="evenodd" clip-rule="evenodd" d="M21.917 54.3298C23.398 56.29 24.2764 58.7314 24.2764 61.3779C24.2764 67.8414 19.0366 73.0812 12.573 73.0812C6.10943 73.0812 0.869629 67.8414 0.869629 61.3779C0.869629 54.9143 6.10943 49.6748 12.573 49.6748C14.3642 49.6748 16.0612 50.0771 17.5788 50.7962L21.917 54.3298Z" fill="white"/>
<path fill-rule="evenodd" clip-rule="evenodd" d="M12.573 73.8859C5.67619 73.8859 0.0649414 68.275 0.0649414 61.3779C0.0649414 54.481 5.67619 48.8701 12.573 48.8701C14.4444 48.8701 16.2446 49.2734 17.9235 50.0691C18.3249 50.2593 18.4965 50.7392 18.3059 51.1406C18.1157 51.5423 17.6364 51.7139 17.2341 51.5233C15.7724 50.8307 14.2043 50.4795 12.573 50.4795C6.5636 50.4795 1.67432 55.3685 1.67432 61.3779C1.67432 67.3876 6.5636 72.2765 12.573 72.2765C18.5827 72.2765 23.4717 67.3876 23.4717 61.3779C23.4717 58.9863 22.7121 56.7171 21.2749 54.8145C21.0068 54.4601 21.0773 53.9557 21.432 53.6876C21.7864 53.4195 22.2914 53.49 22.5589 53.8447C24.2091 56.0286 25.0811 58.6336 25.0811 61.3779C25.0811 68.275 19.4701 73.8859 12.573 73.8859Z" fill="black"/>
<path fill-rule="evenodd" clip-rule="evenodd" d="M15.2555 57.8303C15.2555 56.9806 14.5667 56.2917 13.7169 56.2917H12.0322C11.1825 56.2917 10.4937 56.9806 10.4937 57.8303V59.9875C10.4937 60.6898 11.063 61.2596 11.7657 61.2596H13.9831C14.6858 61.2596 15.2555 61.829 15.2555 62.5316V64.8057C15.2555 65.5907 14.6188 66.2274 13.8337 66.2274H11.9154C11.13 66.2274 10.4937 65.5907 10.4937 64.8057L15.2555 57.8303Z" fill="#F3F6F5"/>
<path fill-rule="evenodd" clip-rule="evenodd" d="M13.8337 67.0321H11.9154C10.6877 67.0321 9.68896 66.0333 9.68896 64.8057C9.68896 64.3612 10.0491 64.001 10.4937 64.001C10.9382 64.001 11.2983 64.3612 11.2983 64.8057C11.2983 65.1456 11.5752 65.4227 11.9154 65.4227H13.8337C14.174 65.4227 14.4508 65.1456 14.4508 64.8057V62.5316C14.4508 62.2738 14.2409 62.0643 13.9831 62.0643H11.7657C10.6205 62.0643 9.68896 61.1324 9.68896 59.9875V57.8303C9.68896 56.5383 10.7402 55.4871 12.0322 55.4871H13.7169C15.0089 55.4871 16.0602 56.5383 16.0602 57.8303C16.0602 58.2745 15.7 58.635 15.2555 58.635C14.811 58.635 14.4508 58.2745 14.4508 57.8303C14.4508 57.4257 14.1215 57.0964 13.7169 57.0964H12.0322C11.6276 57.0964 11.2983 57.4257 11.2983 57.8303V59.9875C11.2983 60.2453 11.5082 60.4549 11.7657 60.4549H13.9831C15.1283 60.4549 16.0602 61.3864 16.0602 62.5316V64.8057C16.0602 66.0333 15.0614 67.0321 13.8337 67.0321Z" fill="black"/>
<path fill-rule="evenodd" clip-rule="evenodd" d="M12.8746 55.5527C12.4301 55.5527 12.0699 55.1925 12.0699 54.748V53.9121C12.0699 53.4676 12.4301 53.1074 12.8746 53.1074C13.3191 53.1074 13.6793 53.4676 13.6793 53.9121V54.748C13.6793 55.1925 13.3191 55.5527 12.8746 55.5527Z" fill="black"/>
<path fill-rule="evenodd" clip-rule="evenodd" d="M12.8746 69.4117C12.4301 69.4117 12.0699 69.0515 12.0699 68.607V67.7708C12.0699 67.3266 12.4301 66.9661 12.8746 66.9661C13.3191 66.9661 13.6793 67.3266 13.6793 67.7708V68.607C13.6793 69.0515 13.3191 69.4117 12.8746 69.4117Z" fill="black"/>
<path fill-rule="evenodd" clip-rule="evenodd" d="M4.18909 75.9406C3.7449 75.9406 3.3844 75.5804 3.3844 75.1359V69.5408C3.3844 69.0966 3.7449 68.7361 4.18909 68.7361C4.6336 68.7361 4.99377 69.0966 4.99377 69.5408V75.1359C4.99377 75.5804 4.6336 75.9406 4.18909 75.9406Z" fill="black"/>
<path fill-rule="evenodd" clip-rule="evenodd" d="M8.46655 78.2843C8.02204 78.2843 7.66187 77.9238 7.66187 77.4796V72.3386C7.66187 71.8941 8.02204 71.5339 8.46655 71.5339C8.91074 71.5339 9.27124 71.8941 9.27124 72.3386V77.4796C9.27124 77.9238 8.91074 78.2843 8.46655 78.2843Z" fill="black"/>
<path fill-rule="evenodd" clip-rule="evenodd" d="M20.9729 75.9406C20.5287 75.9406 20.1682 75.5804 20.1682 75.1359V69.5408C20.1682 69.0966 20.5287 68.7361 20.9729 68.7361C21.4174 68.7361 21.7776 69.0966 21.7776 69.5408V75.1359C21.7776 75.5804 21.4174 75.9406 20.9729 75.9406Z" fill="black"/>
<path fill-rule="evenodd" clip-rule="evenodd" d="M16.6963 78.2843C16.2518 78.2843 15.8916 77.9238 15.8916 77.4796V72.3386C15.8916 71.8941 16.2518 71.5339 16.6963 71.5339C17.1408 71.5339 17.501 71.8941 17.501 72.3386V77.4796C17.501 77.9238 17.1408 78.2843 16.6963 78.2843Z" fill="black"/>
<path fill-rule="evenodd" clip-rule="evenodd" d="M12.573 79.4812C12.1285 79.4812 11.7683 79.121 11.7683 78.6765V73.0811C11.7683 72.6369 12.1285 72.2764 12.573 72.2764C13.0175 72.2764 13.3777 72.6369 13.3777 73.0811V78.6765C13.3777 79.121 13.0175 79.4812 12.573 79.4812Z" fill="black"/>
</svg>

<svg width="104" height="97" fill="none" xmlns="http://www.w3.org/2000/svg"><path fill-rule="evenodd" clip-rule="evenodd" d="M98.099 62.31c0 18.658-15.125 33.783-33.782 33.783-18.658 0-33.783-15.125-33.783-33.782 0-18.658 15.125-33.783 33.783-33.783 18.657 0 33.782 15.125 33.782 33.783z" fill="#33A853"/><path fill-rule="evenodd" clip-rule="evenodd" d="M64.018 63.115H31.1a.805.805 0 010-1.609h32.917a.805.805 0 110 1.61z" fill="#000"/><path fill-rule="evenodd" clip-rule="evenodd" d="M64.607 95.007zm-.004 1.61c-.799 0-.866-.787-.92-1.419a49.398 49.398 0 01-.111-1.99c-.07-1.695-.133-4.12-.187-7.204-.11-6.34-.172-14.754-.172-23.693a.805.805 0 011.61 0c0 18.819.26 31.688.505 33.153a.805.805 0 01-.725 1.153z" fill="#192331"/><path fill-rule="evenodd" clip-rule="evenodd" d="M64.098 80.013H35.682a.805.805 0 010-1.61h28.416a.805.805 0 110 1.61z" fill="#000"/><path fill-rule="evenodd" clip-rule="evenodd" d="M64.603 96.617c-4.958 0-9.582-3.642-13.02-10.256-3.35-6.447-5.196-14.989-5.196-24.05a.805.805 0 111.61 0c0 8.808 1.78 17.086 5.014 23.308 3.147 6.054 7.264 9.388 11.592 9.388a.805.805 0 110 1.61z" fill="#000"/><path fill-rule="evenodd" clip-rule="evenodd" d="M64.607 95.007zm-.004 1.61c-.799 0-.866-.787-.92-1.419a49.398 49.398 0 01-.111-1.99c-.07-1.695-.133-4.12-.187-7.204-.11-6.34-.172-14.754-.172-23.693 0-.445.36-.805.805-.805H98.1a.805.805 0 110 1.61H64.823c.007 18.38.263 30.904.505 32.348a.805.805 0 01-.725 1.153z" fill="#000"/><path fill-rule="evenodd" clip-rule="evenodd" d="M93.52 80.013H64.097a.805.805 0 010-1.61H93.52a.805.805 0 110 1.61zM64.724 29.61zm-.706 33.506a.805.805 0 01-.805-.805c0-8.937.062-17.35.172-23.689.054-3.085.117-5.509.187-7.204.035-.868.073-1.538.112-1.99.053-.632.12-1.418.919-1.418a.805.805 0 01.725 1.153c-.246 1.465-.505 14.332-.505 33.148 0 .444-.36.805-.805.805z" fill="#000"/><path fill-rule="evenodd" clip-rule="evenodd" d="M64.098 46.222H35.682a.805.805 0 010-1.61h28.416a.805.805 0 110 1.61z" fill="#000"/><path fill-rule="evenodd" clip-rule="evenodd" d="M47.192 63.116a.805.805 0 01-.805-.805c0-9.06 1.846-17.6 5.197-24.046 3.437-6.613 8.06-10.255 13.019-10.255a.804.804 0 110 1.61c-4.328 0-8.445 3.333-11.592 9.387-3.233 6.221-5.014 14.498-5.014 23.304 0 .444-.36.805-.805.805zM93.52 46.222H64.097a.805.805 0 110-1.61H93.52a.805.805 0 110 1.61zM64.603 96.617a.805.805 0 010-1.61c4.328 0 8.445-3.334 11.591-9.388 3.234-6.222 5.015-14.5 5.015-23.308a.805.805 0 111.61 0c0 9.062-1.846 17.603-5.197 24.05-3.437 6.614-8.061 10.256-13.02 10.256z" fill="#000"/><path fill-rule="evenodd" clip-rule="evenodd" d="M82.014 63.116a.805.805 0 01-.805-.805c0-8.806-1.781-17.083-5.015-23.304-3.147-6.054-7.263-9.388-11.591-9.388a.805.805 0 110-1.61c4.958 0 9.581 3.643 13.02 10.256 3.35 6.446 5.196 14.986 5.196 24.046 0 .444-.36.805-.805.805zm10.44-43.078a.803.803 0 01-.672-1.246l2.363-3.612a.804.804 0 111.347.882l-2.364 3.611a.804.804 0 01-.674.365zm5.238 16.271a.805.805 0 01-.02-1.61l4.314-.112a.805.805 0 11.042 1.609l-4.314.113h-.022zM76.505 22.655a.805.805 0 01-.742-.492l-1.68-3.975a.805.805 0 111.483-.627l1.68 3.976a.805.805 0 01-.741 1.118zm-32.85 2.191c-12.127 6.44-22.355-6.43-34.464 0V4.347c12.108-6.429 22.337 6.44 34.464 0v20.5z" fill="#000"/><path fill-rule="evenodd" clip-rule="evenodd" d="M36.186 12.842c-3.44 0-6.755-.954-9.999-1.888-2.722-.784-5.536-1.594-8.32-1.783a.805.805 0 01.11-1.606c2.954.2 5.853 1.035 8.656 1.842 4.977 1.434 9.678 2.787 14.732.92a.804.804 0 11.557 1.51c-1.955.722-3.864 1.005-5.736 1.005zm1.335 10.028a.805.805 0 01-.063-1.606 14.397 14.397 0 003.907-.856.804.804 0 11.557 1.51 15.997 15.997 0 01-4.4.953zm-9.081-6.444a.8.8 0 01-.213-.03c-.681-.186-1.36-.382-2.04-.578-2.722-.783-5.536-1.594-8.32-1.783a.805.805 0 11.11-1.605c2.954.2 5.852 1.035 8.655 1.842.673.194 1.347.388 2.022.573a.805.805 0 01-.213 1.58z" fill="#F3F6F5"/><path fill-rule="evenodd" clip-rule="evenodd" d="M46.315 41.431a.805.805 0 01-.805-.804V1.747a.804.804 0 111.61 0v38.88c0 .444-.36.804-.805.804zM12.573 56.075c-6.01 0-10.899 4.889-10.899 10.898 0 6.01 4.89 10.899 10.899 10.899 6.01 0 10.899-4.889 10.899-10.899 0-6.01-4.89-10.898-10.899-10.898zm0 23.406c-6.897 0-12.508-5.61-12.508-12.508 0-6.896 5.611-12.507 12.508-12.507 6.897 0 12.508 5.61 12.508 12.507 0 6.898-5.61 12.508-12.508 12.508z" fill="#000"/><path fill-rule="evenodd" clip-rule="evenodd" d="M21.917 54.33a11.652 11.652 0 012.36 7.048c0 6.463-5.24 11.703-11.704 11.703S.87 67.841.87 61.378c0-6.464 5.24-11.703 11.703-11.703 1.791 0 3.488.402 5.006 1.121l4.338 3.534z" fill="#fff"/><path fill-rule="evenodd" clip-rule="evenodd" d="M12.573 73.886C5.676 73.886.065 68.275.065 61.378c0-6.897 5.611-12.508 12.508-12.508 1.871 0 3.672.403 5.35 1.2a.804.804 0 11-.689 1.453 10.801 10.801 0 00-4.661-1.044c-6.01 0-10.899 4.89-10.899 10.899 0 6.01 4.89 10.898 10.899 10.898 6.01 0 10.899-4.888 10.899-10.898 0-2.392-.76-4.66-2.197-6.563a.804.804 0 111.284-.97 12.398 12.398 0 012.522 7.533c0 6.897-5.61 12.508-12.508 12.508z" fill="#000"/><path fill-rule="evenodd" clip-rule="evenodd" d="M15.255 57.83c0-.85-.688-1.538-1.538-1.538h-1.685c-.85 0-1.538.689-1.538 1.538v2.157c0 .703.569 1.273 1.272 1.273h2.217c.703 0 1.272.569 1.272 1.272v2.274a1.42 1.42 0 01-1.421 1.421h-1.919a1.422 1.422 0 01-1.421-1.421l4.761-6.976z" fill="#F3F6F5"/><path fill-rule="evenodd" clip-rule="evenodd" d="M13.834 67.032h-1.919a2.229 2.229 0 01-2.226-2.226.805.805 0 111.61 0c0 .34.276.617.616.617h1.919c.34 0 .617-.277.617-.617v-2.274a.468.468 0 00-.468-.468h-2.217a2.08 2.08 0 01-2.077-2.077V57.83a2.346 2.346 0 012.343-2.343h1.685a2.346 2.346 0 012.343 2.343.805.805 0 01-1.61 0 .735.735 0 00-.733-.734h-1.685a.735.735 0 00-.734.734v2.157c0 .258.21.468.468.468h2.217a2.08 2.08 0 012.077 2.077v2.274a2.229 2.229 0 01-2.226 2.226z" fill="#000"/><path fill-rule="evenodd" clip-rule="evenodd" d="M12.875 55.553a.805.805 0 01-.805-.805v-.836a.805.805 0 111.61 0v.836c0 .445-.36.805-.805.805zm0 13.859a.805.805 0 01-.805-.805v-.836a.805.805 0 011.61 0v.836c0 .445-.36.805-.805.805zM4.19 75.94a.805.805 0 01-.806-.804V69.54a.805.805 0 011.61 0v5.595c0 .444-.36.805-.805.805zm4.277 2.344a.805.805 0 01-.805-.804v-5.141a.805.805 0 111.61 0v5.14a.805.805 0 01-.805.805zm12.506-2.344a.805.805 0 01-.805-.804V69.54a.805.805 0 011.61 0v5.595c0 .444-.36.805-.805.805zm-4.277 2.344a.805.805 0 01-.804-.804v-5.141a.805.805 0 111.609 0v5.14c0 .445-.36.805-.805.805zm-4.123 1.197a.805.805 0 01-.805-.804V73.08a.805.805 0 011.61 0v5.596c0 .444-.36.804-.805.804z" fill="#000"/></svg>
